X:1
T:Title
%%score [ ( 1 2 ) ( 3 4 ) ]
L:1/8
Q:1/4=120
M:4/4
K:Bb
V:1 treble nm="Midi_74"
V:2 treble 
V:3 treble nm="Midi_74"
V:4 treble 
V:1
 F8 | d4 c4 | B8 || G8 | F4 B4 | B4 A4 |"^Richard Thiele\n(1847-1903)" B8 |] %7
V:2
 D8 | F4 E4 | D8 || _D8 | !courtesy!=D4 F4 | E4 E4 | D8 |] %7
V:3
 B,8 | B,4 A,4 | B,8 || B,8 | B,4 D4 | C4 F,4 | F,8 |] %7
V:4
 B,,8 | B,4 ^F,4 | G,8 || =E,8 | F,4 F,4 | F,4 F,,4 | B,,8 |] %7

